X: 742
T: Friendly Jack
R:jig
N:"Collected by Fielding"
B:O'Neill's 742
Z:Transcribed by Michael Hogan
M:6/8
L:1/8
K:D
A2D FED | A2D FED | A2D FED | G2E E3  |
A2D FED | A2D FED | G2A B2G | F2D D3 :|
d2e f2d | g2e f2d | d2e f2d | e2d B2c |
d2e f2d | g2e f2d | d2B A2G | F2D D3 :|


